X: 10424
T: O WHISTLE AND I'LL COME TO YOU, MY LAD.
Q: "With spirit."
%R: air, waltz, jig
B: W. Hamilton "Universal Tune-Book" Vol. 1 Glasgow 1844 p.42 #4 (and p.43 #1)
S: http://imslp.org/wiki/Hamilton's_Universal_Tune-Book_(Various)
Z: 2016 John Chambers <jc:trillian.mit.edu>
M: 5/8
L: 1/16
K: Bb
%%slurgraces yes
%%graceslurs yes
% - - - - - - - - - - - - - - - - - - - - - - - - -
Bc |\
dB3G2 F3ED2 | C2c3c c4Bc |\
dB3G2 F3DF2 | GB3B2 B4Bc |\
d2B2G2 F3ED2 | C2e2d2 ({d}c4f/g/f/e/) |\
dB3G2 F3DF2 | GB3B2 B4 |] dc |\
B2d2f2 B2d2f2 |
B2d2f2 f3e dc |\
B2d2f2 B2d2f2 | g2c2c2 Hc4 {de}dc |\
B2d2f2 B2d2f2 | B2b2g2 Hf4 {g}fe |\
d2B2G2 F3ED2 | C2c2c2 (c4f/g/f/e/) |\
d2B2G2 F3DF2 | G2B2B2 B4 |]
% - - - - - - - - - - - - - - - - - - - - - - - - -

%%sep 1 1 500
%%sep 1 1 500

